X:16
T:"The Bluebird" by Elizabeth (Clark) Zekley  1990
D:A bird on the wing.
S:Original Tune
R:Jig
O:Mendocino, California
M:6/8
Q:300
F:http://larkcamp.com/meabc.txt
K:D
D2 F E2 G|FAd f2 d|c2 A ABA|G2 E ~E3|DFF EGG|FAd f2 d|c2 A ABc|1d3 dz2:|2d3 dze|:f2 d g2 e|f2 d ded|c2 A ABA|G2 E E2 e| f2 d g2 e|f2 d ded|c2 A ABc|!d3 d2 e| f2 d g2e|f2 d ded| c2 A ABA|G2 EE2F|D2FE2G|FAd f2 d|c2 A ABc|d3 dz2|
